assets/images/arrow-blue.svg

<svg width="12" height="12" viewBox="0 0 12 12" fill="none" xmlns="http://www.w3.org/2000/svg">
<path d="M1.16057 10.0937C0.770045 10.4842 0.770045 11.1174 1.16057 11.5079C1.55109 11.8984 2.18426 11.8984 2.57478 11.5079L1.16057 10.0937ZM11.9186 1.74981C11.9186 1.19753 11.4709 0.749814 10.9186 0.749814H1.91864C1.36636 0.749814 0.918643 1.19753 0.918643 1.74981C0.918643 2.3021 1.36636 2.74981 1.91864 2.74981H9.91864V10.7498C9.91864 11.3021 10.3664 11.7498 10.9186 11.7498C11.4709 11.7498 11.9186 11.3021 11.9186 10.7498V1.74981ZM2.57478 11.5079L11.6257 2.45692L10.2115 1.04271L1.16057 10.0937L2.57478 11.5079Z" fill="#004B98"/>
</svg>

<svg width="12" height="12" fill="none" xmlns="http://www.w3.org/2000/svg"><path d="M1.16 10.094a1 1 0 1 0 1.415 1.414L1.16 10.094ZM11.92 1.75a1 1 0 0 0-1-1h-9a1 1 0 0 0 0 2h8v8a1 1 0 0 0 2 0v-9Zm-9.344 9.758 9.05-9.051-1.414-1.414-9.05 9.05 1.414 1.415Z" fill="#004B98"/></svg>
